icons/Forklift_filled.svg

<svg width="24" height="24" viewBox="0 0 24 24" fill="none" xmlns="http://www.w3.org/2000/svg">
<path fill-rule="evenodd" clip-rule="evenodd" d="M18.75,19.25h4.25c0.4142,0 0.75,0.3358 0.75,0.75c0,0.4142 -0.3358,0.75 -0.75,0.75h-4.5c-0.6904,0 -1.25,-0.5596 -1.25,-1.25v-17.5c0,-0.41421 0.3358,-0.75 0.75,-0.75c0.4142,0 0.75,0.33579 0.75,0.75zM14.75,13v-0.7972l-3.1808,-5.4528h-3.3192v6.5h6.5zM6.75,13.25v-6.75c0,-0.69036 0.55964,-1.25 1.25,-1.25h3.7128c0.4446,0 0.8557,0.23614 1.0797,0.62016l3.2872,5.63514c0.1115,0.1912 0.1703,0.4086 0.1703,0.6299v0.8648v0.5v0.5v3.1279c0.318,0.5509 0.5,1.1903 0.5,1.8721c0,2.0711 -1.6789,3.75 -3.75,3.75c-1.439,0 -2.6887,-0.8105 -3.31748,-2h-4.03604c-0.32646,1.1543 -1.3877,2 -2.64648,2c-1.51878,0 -2.75,-1.2312 -2.75,-2.75c0,-0.5887 0.18499,-1.1342 0.5,-1.5815v-1.9185c0,-1.7949 1.45507,-3.25 3.25,-3.25zM3,21.25c0.69036,0 1.25,-0.5596 1.25,-1.25c0,-0.6904 -0.55964,-1.25 -1.25,-1.25c-0.69036,0 -1.25,0.5596 -1.25,1.25c0,0.6904 0.55964,1.25 1.25,1.25zM13,16.75c-1.2426,0 -2.25,1.0074 -2.25,2.25c0,1.2426 1.0074,2.25 2.25,2.25c1.2426,0 2.25,-1.0074 2.25,-2.25c0,-1.2426 -1.0074,-2.25 -2.25,-2.25z" fill="#002B51"/>
</svg>

<svg width="24" height="24" viewBox="0 0 24 24" fill="none" xmlns="http://www.w3.org/2000/svg">
<path fill-rule="evenodd" clip-rule="evenodd" d="M18.75 2C18.75 1.58579 18.4142 1.25 18 1.25C17.5858 1.25 17.25 1.58579 17.25 2V19.5C17.25 20.1904 17.8096 20.75 18.5 20.75H23C23.4142 20.75 23.75 20.4142 23.75 20C23.75 19.5858 23.4142 19.25 23 19.25H18.75V2ZM14.75 13V12.2028L11.5692 6.75H8.25V13.25H14.75V13ZM6.75 13.25V6.5C6.75 5.80964 7.30964 5.25 8 5.25H11.7128C12.1574 5.25 12.5685 5.48614 12.7925 5.87016L16.0797 11.5053C16.1912 11.6965 16.25 11.9139 16.25 12.1352V13V13.5V14V17.1279C16.568 17.6788 16.75 18.3182 16.75 19C16.75 21.0711 15.0711 22.75 13 22.75C11.561 22.75 10.3113 21.9395 9.68252 20.75H5.64648C5.32002 21.9043 4.25878 22.75 3 22.75C1.48122 22.75 0.25 21.5188 0.25 20C0.25 19.4113 0.434985 18.8658 0.75 18.4185V16.5C0.75 14.7051 2.20507 13.25 4 13.25H6.75ZM1.75 20C1.75 19.3096 2.30964 18.75 3 18.75C3.69036 18.75 4.25 19.3096 4.25 20C4.25 20.6904 3.69036 21.25 3 21.25C2.30964 21.25 1.75 20.6904 1.75 20ZM13 16.75C11.7574 16.75 10.75 17.7574 10.75 19C10.75 20.2426 11.7574 21.25 13 21.25C14.2426 21.25 15.25 20.2426 15.25 19C15.25 17.7574 14.2426 16.75 13 16.75Z" fill="#002B51"/>
</svg>
